X:056
T:Flaherty's (hornpipe) 
B:CRE 3.224 (CornphÃÂÃÂÃÂÃÂ­opa an Fhlaitheartaigh)
F:file ID: cre.3/056flah
L:1/8
Q:150
M:C|
R:hornpipe
K:D
dB|AFD2 A,DFA|dced BcdB|AFD2 A,DFA|BAGF EA,CE|
AFD2 A,DFA|dced BcdB|AFdB AGFE|(3DED CE D2:|
|:c2|BABc dcdf|bagf edcd|cEEF GABc|(3edc (3dcB AGFG|
AFD2 A,DFA|dced Bc (3dcB|AFdB AGFE|(3DED CE D2:|

%%%

